icon-svg/fisker.svg

<svg xmlns="http://www.w3.org/2000/svg" viewBox="0 0 24 24"><path fill="#44739e" d="M12 2a10 10 0 1 0 10 10A10 10 0 0 0 12 2m1.876 18.839V6.979a5.3 5.3 0 0 0-.921-.252l-.072-.014v14.279q-.435.043-.885.043-.449 0-.883-.043V6.713a5.4 5.4 0 0 0-.982.262h-.01v13.86a9.03 9.03 0 0 1-7-10.512v-.026q.015-.087.033-.174.038-.178.084-.354l.009-.039q.05-.19.108-.377l.022-.053q.062-.198.133-.393l.007-.022a9 9 0 0 1 3.067-4.112l.019-.014c.1-.077.208-.151.314-.223l.053-.036c.1-.064.195-.127.294-.188l.083-.051q.138-.083.28-.161l.1-.057q.138-.077.279-.143l.111-.055.294-.132.1-.044q.16-.068.326-.128l.073-.028a9 9 0 0 1 .383-.129l.021-.007c.151-.047.3-.088.457-.127l.147-.037q.2-.047.4-.084.119-.022.238-.041l.185-.027q.256-.036.517-.057h.064a9 9 0 0 1 1.061-.016h.018a9 9 0 0 1 1.125.122l.074.014c.089.016.179.028.268.047a9.034 9.034 0 0 1 0 17.673Zm.19-17.411A9 9 0 0 0 12 3.181a8.829 8.829 0 0 0-2.072 17.4V17.7a6.08 6.08 0 0 1-3.992-5.518h3.992v-.672h-3.78a5.887 5.887 0 0 1 5.631-5.431 5.864 5.864 0 0 1 6.061 5.431h-3.766v.672h3.99a6.08 6.08 0 0 1-3.99 5.517v2.88q.293-.07.575-.16l.028-.009a8.824 8.824 0 0 0-.611-16.984Zm-8.5 7.2L3.8 10l.65-1.853.413.145L4.4 9.609l.34.118.437-1.24.413.145-.438 1.24.607.213Zm1.386-2.8L5.54 6.586l.366-.462L7.363 7.4Zm3.1-2.128-.071.041-.081.032-.2.1-.143.071-.239.1a9 9 0 0 0-.329.144l-.1.04-.1.035a.6.6 0 0 1-.2.057.5.5 0 0 1-.189-.02.34.34 0 0 1-.143-.094.7.7 0 0 1-.127-.192L8.068 5.9l.519-.239c.041.09.092.143.149.143a.3.3 0 0 0 .082-.012 1 1 0 0 0 .127-.049l.149-.063.38-.176.137-.063c.1-.047.137-.117.1-.205a.13.13 0 0 0-.166-.075l-.108.04-.108.043-.319.131-.155.062-.268.106-.113.047a1 1 0 0 1-.138.041.33.33 0 0 1-.372-.1 1 1 0 0 1-.131-.205A1 1 0 0 1 7.725 5a.38.38 0 0 1 .12-.315 2.7 2.7 0 0 1 .613-.343l.254-.11.241-.105a1.7 1.7 0 0 1 .29-.106.8.8 0 0 1 .227-.028.34.34 0 0 1 .2.071.55.55 0 0 1 .156.2l.053.115-.519.239-.037-.059a.15.15 0 0 0-.143-.068h-.033a1 1 0 0 0-.117.043l-.143.06-.3.143-.137.063a.4.4 0 0 0-.1.063.12.12 0 0 0-.031.158.135.135 0 0 0 .164.079l.059-.016.061-.022L8.742 5l.487-.2.286-.117a.6.6 0 0 1 .114-.04 1 1 0 0 1 .123-.023q.292-.032.482.382l.019.033a.485.485 0 0 1-.201.658Zm4.21.039-.827-.1-.773-.785-.241-.027-.078.685-.568-.063.215-1.869.568.065-.08.7.252.031.809-.613.811.094-1.156.813Zm3.111 1.181-1.083-.9-.217.261 1.159.965-.278.337-1.6-1.332 1.2-1.441 1.588 1.32-.282.335-1.145-.965-.166.2 1.084.9Zm2.683 2.639q.034.089.043.122.01.033.027.1a.44.44 0 0 1-.047.4.5.5 0 0 1-.1.1 1 1 0 0 1-.121.067 1 1 0 0 1-.131.058.8.8 0 0 1-.347.061.48.48 0 0 1-.278-.215.5.5 0 0 1-.049.332.7.7 0 0 1-.3.169l-.214.08-.205-.538.162-.065a.4.4 0 0 0 .2-.119.28.28 0 0 0-.02-.228l-.315-.853-.435.162-.2-.538L19.484 8Zm-.938.141.033.088a.4.4 0 0 0 .027.059.2.2 0 0 0 .034.045.23.23 0 0 0 .223 0 .22.22 0 0 0 .131-.107.25.25 0 0 0-.021-.175l-.053-.158-.271-.737-.409.153.276.75ZM8 16.255a5.8 5.8 0 0 0 1.924 1.193v-5.06H6.148A5.82 5.82 0 0 0 8 16.255m6.074-3.867v5.05a5.9 5.9 0 0 0 3.766-5.05Zm-1.389 5.392v-5.392h-1.37v5.4a6 6 0 0 0 .894.036q.24-.015.476-.044m-1.37-6.008v.387h1.37v-.654h-1.37Zm.018 6.189v2.773a6 6 0 0 0 .684.027q.341 0 .685-.027v-2.773a6 6 0 0 1-1.369 0"/></svg>

<?xml version="1.0" encoding="UTF-8"?>
<svg width="24px" fill="#44739e" height="24px" viewBox="0 0 24 24" version="1.1" xmlns="http://www.w3.org/2000/svg" xmlns:xlink="http://www.w3.org/1999/xlink">
            <path d="M 12,2 A 10,10 0 1 0 22,12 10,10 0 0 0 12,2 Z m 1.876,18.839 V 6.979 A 5.253,5.253 0 0 0 12.955,6.727 L 12.883,6.713 v 14.279 q -0.435,0.043 -0.885,0.043 c -0.3,0 -0.593,-0.014 -0.883,-0.043 V 6.713 a 5.368,5.368 0 0 0 -0.982,0.262 h -0.01 v 0 13.86 a 9.032,9.032 0 0 1 -7,-10.512 V 10.297 C 3.134,10.239 3.143,10.181 3.156,10.123 3.181,10.004 3.21,9.886 3.24,9.769 L 3.249,9.73 C 3.282,9.603 3.318,9.478 3.357,9.353 L 3.379,9.3 C 3.42,9.168 3.465,9.037 3.512,8.907 L 3.519,8.885 A 9.006,9.006 0 0 1 6.586,4.773 L 6.605,4.759 C 6.705,4.682 6.813,4.608 6.919,4.536 L 6.972,4.5 C 7.072,4.436 7.167,4.373 7.266,4.312 L 7.349,4.261 C 7.441,4.206 7.535,4.152 7.629,4.1 7.664,4.081 7.698,4.061 7.729,4.043 7.821,3.993 7.914,3.943 8.008,3.9 L 8.119,3.845 c 0.1,-0.046 0.2,-0.089 0.294,-0.132 l 0.1,-0.044 C 8.62,3.624 8.729,3.581 8.839,3.541 L 8.912,3.513 C 9.039,3.467 9.166,3.424 9.295,3.384 L 9.316,3.377 C 9.467,3.33 9.616,3.289 9.773,3.25 L 9.92,3.213 q 0.2,-0.047 0.4,-0.084 C 10.399,3.114 10.479,3.101 10.558,3.088 L 10.743,3.061 C 10.914,3.037 11.086,3.018 11.26,3.004 h 0.064 a 8.716,8.716 0 0 1 1.061,-0.016 h 0.018 a 9.035,9.035 0 0 1 1.125,0.122 l 0.074,0.014 c 0.089,0.016 0.179,0.028 0.268,0.047 a 9.034,9.034 0 0 1 0,17.673 z M 14.066,3.428 A 8.849,8.849 0 0 0 12,3.181 v 0 a 8.829,8.829 0 0 0 -2.072,17.4 V 17.7 A 6.079,6.079 0 0 1 5.936,12.182 H 9.928 V 11.51 h -3.78 a 5.887,5.887 0 0 1 5.631,-5.431 5.864,5.864 0 0 1 6.061,5.431 h -3.766 v 0.672 h 3.99 a 6.079,6.079 0 0 1 -3.99,5.517 v 2.88 q 0.293,-0.07 0.575,-0.16 L 14.677,20.41 A 8.824,8.824 0 0 0 14.066,3.426 Z m -8.5,7.2 L 3.8,10 4.45,8.147 4.863,8.292 4.4,9.609 4.74,9.727 5.177,8.487 5.59,8.632 5.152,9.872 5.759,10.085 Z M 6.952,7.828 5.54,6.586 5.906,6.124 7.363,7.4 Z M 10.052,5.7 9.981,5.741 9.9,5.773 9.7,5.873 9.557,5.944 9.318,6.044 C 9.175,6.104 9.065,6.152 8.989,6.188 l -0.1,0.04 -0.1,0.035 A 0.6,0.6 0 0 1 8.589,6.32 0.529,0.529 0 0 1 8.4,6.3 0.344,0.344 0 0 1 8.257,6.206 0.668,0.668 0 0 1 8.13,6.014 L 8.068,5.9 8.587,5.661 c 0.041,0.09 0.092,0.143 0.149,0.143 A 0.286,0.286 0 0 0 8.818,5.792 0.853,0.853 0 0 0 8.945,5.743 L 9.094,5.68 9.474,5.504 9.611,5.441 c 0.1,-0.047 0.137,-0.117 0.1,-0.205 A 0.129,0.129 0 0 0 9.545,5.161 L 9.437,5.201 9.329,5.244 9.01,5.375 8.855,5.437 8.587,5.543 8.474,5.59 A 1.289,1.289 0 0 1 8.336,5.631 0.334,0.334 0 0 1 7.964,5.531 0.882,0.882 0 0 1 7.833,5.326 0.984,0.984 0 0 1 7.725,5 0.384,0.384 0 0 1 7.845,4.685 2.653,2.653 0 0 1 8.458,4.342 L 8.712,4.232 8.953,4.127 a 1.649,1.649 0 0 1 0.29,-0.106 0.826,0.826 0 0 1 0.227,-0.028 0.343,0.343 0 0 1 0.2,0.071 0.547,0.547 0 0 1 0.156,0.2 L 9.879,4.379 9.36,4.618 9.323,4.559 A 0.152,0.152 0 0 0 9.18,4.491 H 9.147 A 0.963,0.963 0 0 0 9.03,4.534 L 8.887,4.594 8.587,4.737 8.45,4.8 A 0.362,0.362 0 0 0 8.35,4.863 0.119,0.119 0 0 0 8.319,5.021 0.135,0.135 0 0 0 8.483,5.1 L 8.542,5.084 8.603,5.062 8.742,5 9.229,4.8 9.515,4.683 A 0.571,0.571 0 0 1 9.629,4.643 1.063,1.063 0 0 1 9.752,4.62 c 0.195,-0.022 0.355,0.106 0.482,0.382 l 0.019,0.033 a 0.485,0.485 0 0 1 -0.201,0.658 z m 4.21,0.039 -0.827,-0.1 L 12.662,4.854 12.421,4.827 12.343,5.512 11.775,5.449 11.99,3.58 l 0.568,0.065 -0.08,0.7 0.252,0.031 0.809,-0.613 0.811,0.094 -1.156,0.813 z m 3.111,1.181 -1.083,-0.9 -0.217,0.261 1.159,0.965 -0.278,0.337 -1.6,-1.332 1.2,-1.441 1.588,1.32 L 17.86,6.465 16.715,5.5 16.549,5.7 17.633,6.6 Z m 2.683,2.639 c 0.023,0.059 0.037,0.1 0.043,0.122 0.006,0.022 0.017,0.055 0.027,0.1 a 0.444,0.444 0 0 1 -0.047,0.4 0.5,0.5 0 0 1 -0.1,0.1 1.194,1.194 0 0 1 -0.121,0.067 1.272,1.272 0 0 1 -0.131,0.058 0.764,0.764 0 0 1 -0.347,0.061 0.482,0.482 0 0 1 -0.278,-0.215 0.5,0.5 0 0 1 -0.049,0.332 0.707,0.707 0 0 1 -0.3,0.169 l -0.214,0.08 -0.205,-0.538 0.162,-0.065 a 0.412,0.412 0 0 0 0.2,-0.119 0.28,0.28 0 0 0 -0.02,-0.228 L 18.361,9.03 17.926,9.192 17.726,8.654 19.484,8 Z M 19.118,9.7 19.151,9.788 a 0.347,0.347 0 0 0 0.027,0.059 0.213,0.213 0 0 0 0.034,0.045 0.23,0.23 0 0 0 0.223,0 A 0.215,0.215 0 0 0 19.566,9.785 0.253,0.253 0 0 0 19.545,9.61 L 19.492,9.452 19.221,8.715 18.812,8.868 19.088,9.618 Z M 8,16.255 a 5.832,5.832 0 0 0 1.924,1.193 v -5.06 H 6.148 A 5.819,5.819 0 0 0 8,16.255 Z m 6.074,-3.867 v 5.05 a 5.9,5.9 0 0 0 3.766,-5.05 z m -1.389,5.392 v -5.392 h -1.37 v 5.4 a 6.039,6.039 0 0 0 0.894,0.036 c 0.16,-0.011 0.319,-0.024 0.476,-0.044 z m -1.37,-6.008 v 0.131 0.011 0.243 0.002 h 1.37 v -0.002 -0.243 -0.011 -0.131 -0.267 h -1.37 z m 0.018,6.189 v 2.773 a 5.82,5.82 0 0 0 0.684,0.027 c 0.227,0 0.456,-0.009 0.685,-0.027 v -2.773 a 6.026,6.026 0 0 1 -1.369,0 z"/>

</svg>
